X:1
T:Title
%%score { ( 1 3 ) | 2 }
L:1/8
Q:1/4=100
M:2/4
K:D
V:1 treble nm="Grand Piano"
V:3 treble 
V:2 bass 
V:1
 [FA]2 [DF]2 | [FA]2 [DF]2 | [DG]A B[Gc] | [Fd]4 | z2 [GB]2 | [DFA]2 [A,EG][A,DF] | %6
w: Robert~Lowry *||||||
 [A,CE]2 [A,EG]>[A,EG] | [A,DF]4 | [DFA]2 [A,DF]2 | [DFA]2 [A,DF]2 | [G,DG]A B[Gc] | [Fd]4 | %12
w: ||||||
 z2 [GB]2 | [DFA]2 [A,EG][A,DF] | [G,CE]2 [A,CF]>[K:bass][G,CE] | [F,D]4 |] %16
w: ||||
V:2
 [D,D]2 [D,A,]2 | [D,D]2 [D,A,]2 | [B,,G,][D,F,D] [G,D][E,A,] | [D,A,]4 | B2 G,[K:bass]G, | %5
 D,2 C,D, | A,,2 A,,>A,, | D,4 | D,2 D,2 | D,2 D,2 | B,,[D,F,D] [G,D][E,A,] | [D,A,]4 | %12
 B2 G,[K:bass]G, | D,2 C,D, | A,,2 A,,>A,, | D,4 |] %16
V:3
 x4 | x4 | x4 | x4 | d2 DD | x4 | x4 | x4 | x4 | x4 | x4 | x4 | d2 DD | x4 | x7/2[K:bass] x/ | %15
 x4 |] %16

